X:0495
T:Dollie's the Girl for me
M:9/8
L:1/8
Q:3/8=120
I: :: ||
Z:Jack Campin * www.campin.me.uk * 2009
K:D
G|(F/G/A).F d2A      d2A|(B/c/d).B AFD      E2 \
G|(F/G/A).F d2A      d2g|(f/g/a).f edc      d2::
g| f2d     (f/g/a).g fed| c2A     (c/d/e).e e2 \
g| f2d      f/g/ag   fed|Tc2A     (B/c/d).d d2
g| f2d     (f/g/a).g fed|Tc2A     (c/d/e).e e2 \
g| fdf      afa      bag| fed      ABc      d2|]

